src/16/panel/si-syncthing-7.svg

<svg xmlns="http://www.w3.org/2000/svg" width="16" height="16" version="1.1">
 <defs>
  <style id="current-color-scheme" type="text/css">
   .ColorScheme-Text { color:#dfdfdf; } .ColorScheme-Highlight { color:#5294e2; }
  </style>
 </defs>
 <path style="fill:currentColor" class="ColorScheme-Text" d="M 8,15 A 7,7 0 0 0 15,8 7,7 0 0 0 8.0000002,1.0000001 7,7 0 0 0 1.0000001,8 7,7 0 0 0 8,15 Z m 10e-8,-2 A 5,5 0 0 1 3.0917972,8.9433598 1.5,1.5 0 0 1 2.0000008,7.5 1.5,1.5 0 0 1 3.4218751,6.0039069 5,5 0 0 1 6.0039067,3.4179694 1.5,1.5 0 0 1 7.5000006,2.0000006 1.5,1.5 0 0 1 8.9433599,3.0937504 5,5 0 0 1 13,7.9999999 a 5,5 0 0 1 -0.002,0.08594 1.5,1.5 0 0 1 1.001952,1.4140617 1.5,1.5 0 0 1 -1.5,1.5000003 1.5,1.5 0 0 1 -0.455079,-0.07227 A 5,5 0 0 1 8.0000001,13 Z m -2e-7,-1 A 4,4 0 0 0 11.248048,10.326173 1.5,1.5 0 0 1 11,9.4999997 a 1.5,1.5 0 0 1 0.0039,-0.060545 L 8.6269533,8.4882813 A 1.5,1.5 0 0 1 7.5000002,9 1.5,1.5 0 0 1 6.0878908,8 L 4.9121092,8 A 1.5,1.5 0 0 1 4.1015632,8.871094 4,4 0 0 0 7.9999999,12 Z M 11.375001,8.5117194 A 1.5,1.5 0 0 1 11.996094,8.089844 4,4 0 0 0 12,8.0000001 4,4 0 0 0 8.8730472,4.0996093 1.5,1.5 0 0 1 8.0000001,4.912109 l 1e-7,1.1757817 a 1.5,1.5 0 0 1 1,1.4121093 1.5,1.5 0 0 1 -0.00391,0.060548 L 11.375001,8.5117194 Z M 6.0878911,7.0000001 A 1.5,1.5 0 0 1 7.0000003,6.0878909 L 7,4.912109 A 1.5,1.5 0 0 1 6.2949224,4.3867194 4,4 0 0 0 4.3886724,6.2929689 1.5,1.5 0 0 1 4.9121058,7.0000021 l 1.1757853,-2e-6 z"/>
</svg>

<svg xmlns="http://www.w3.org/2000/svg" width="16" height="16"><defs><style id="current-color-scheme" type="text/css"></style></defs><path d="M8 15a7 7 0 0 0 7-7 7 7 0 0 0-7-7 7 7 0 0 0-7 7 7 7 0 0 0 7 7zm0-2a5 5 0 0 1-4.908-4.057A1.5 1.5 0 0 1 2 7.5a1.5 1.5 0 0 1 1.422-1.496 5 5 0 0 1 2.582-2.586A1.5 1.5 0 0 1 7.5 2a1.5 1.5 0 0 1 1.443 1.094A5 5 0 0 1 13 8a5 5 0 0 1-.002.086A1.5 1.5 0 0 1 14 9.5a1.5 1.5 0 0 1-1.5 1.5 1.5 1.5 0 0 1-.455-.072A5 5 0 0 1 8 13zm0-1a4 4 0 0 0 3.248-1.674A1.5 1.5 0 0 1 11 9.5a1.5 1.5 0 0 1 .004-.06l-2.377-.952A1.5 1.5 0 0 1 7.5 9a1.5 1.5 0 0 1-1.412-1H4.912a1.5 1.5 0 0 1-.81.871A4 4 0 0 0 8 12zm3.375-3.488a1.5 1.5 0 0 1 .621-.422A4 4 0 0 0 12 8a4 4 0 0 0-3.127-3.9A1.5 1.5 0 0 1 8 4.912v1.176A1.5 1.5 0 0 1 9 7.5a1.5 1.5 0 0 1-.004.06l2.379.952zM6.088 7A1.5 1.5 0 0 1 7 6.088V4.912a1.5 1.5 0 0 1-.705-.525 4 4 0 0 0-1.906 1.906A1.5 1.5 0 0 1 4.912 7h1.176z" fill="currentColor" color="#dfdfdf"/></svg>
